!! 00010] TT[TB
!! Eigene Aufnahme
!!!OTL: Kuiwu de shengqi A pretty body (S. 555)
!!!ARE: Neimeng
!! Ethnic Group: Menggu
!! MM, S. 555 bzw. 559 (Fleck)
!!!SCT: C0547
!!!YEM: Copyright 1995, estate of Helmut Schaffrath.
**kern
*ICvox
*Ivox
*M2/4
*k[]
*C:
{8.a
16g
8a
16c
16d
=1
8.e
16g
8e
8A}
=2
{8.a
16g
8a
16c
16d
=3
2e}
=4
{8.a
16g
8a
16c
16d
=5
8.e
16a
8G
8A}
=6
{16d
8d
16c
16G
16A
8c
=7
2A}
==
!!!AGN: NN
!! Saenger: Chao Lun Batou, der das Buch nur zum Nachschlagen
!!    benutzte und ansonsten auswendig sang. Da er aus dem Osten der
!!    Neimeng kommt, kennt er nicht so viele Lieder des Westens.
!!    Alle Lieder wurden mit erkaelteter, halber Stimme in meinem
!!    Zimmer gesungen. FOTO VORHANDEN (DIAS)  31.3.87 Leichte Variante
!!!ONB: ESAC (Essen Associative Code) Database: CHINA
!!!AMT: simple duple
!!!AIN: vox
!!!EED: Helmut Schaffrath
!!!EEV: 1.0
*-
